src/actions/16/im-yahoo.svg

<svg xmlns="http://www.w3.org/2000/svg" viewBox="0 0 16 16">
  <defs id="defs3051">
    <style type="text/css" id="current-color-scheme">
      .ColorScheme-Text {
        color:#363636;
      }
      </style>
  </defs>
 <path style="fill:currentColor;fill-opacity:1;stroke:none" 
     d="M 1 2 L 1.0117188 2.8710938 L 2.9199219 3.203125 C 3.4425319 3.809965 6.3459725 8.3016581 6.7890625 9.4550781 L 6.8359375 12.671875 C 6.5519175 13.171815 4.8144531 13.068359 4.8144531 13.068359 L 4.6660156 14 C 4.6660156 14 11.175114 13.824791 11.208984 13.925781 C 11.192684 13.809941 11.220703 13.054688 11.220703 13.054688 L 9.1074219 12.980469 C 9.1074219 12.980469 8.9719486 10.686762 9.0742188 9.3515625 C 10.460309 7.3027925 12.933594 4.9882813 12.933594 4.9882812 L 14.611328 4.6074219 L 15 3.7089844 L 9.2792969 3.6621094 L 9.4277344 4.59375 C 9.4277344 4.59375 10.991699 4.7611394 11.162109 4.9433594 C 11.139409 5.3986394 8.4570312 8.2675781 8.4570312 8.2675781 L 5.5214844 2.9921875 L 7.578125 2.7773438 L 8 2 L 1 2 z "
     class="ColorScheme-Text"
     />
</svg>

<svg xmlns="http://www.w3.org/2000/svg" viewBox="0 0 16 16">
    <path d="m1 2 .012.871 1.908.332c.523.607 3.426 5.099 3.87 6.252l.046 3.217c-.284.5-2.022.396-2.022.396L4.666 14s6.51-.175 6.543-.074c-.016-.116.012-.871.012-.871l-2.114-.075s-.135-2.293-.033-3.628c1.386-2.05 3.86-4.364 3.86-4.364l1.677-.38.389-.899-5.72-.047.148.932s1.564.167 1.734.35c-.023.455-2.705 3.324-2.705 3.324L5.521 2.992l2.057-.215L8 2H1z" style="fill:currentColor;fill-opacity:1;stroke:none;color:#050505;opacity:.7"/>
</svg>
